!!!!SEGMENT: pl-sa--l-1643--086_anonim--magnificat-wielkanocne.krn
!!!cenid: 16xx:1444
!!!COM: Anonim
!!!COM-rismid: pe30004985
!!!CDT:
!!!CNT:
!!!OTL: Magnificat wielkanocne
!!!PDT:
!!!AGN: Sacred
!!!SMS-siglum: PL-SA
!!!SMS-shelfmark: L 1643
!!!SMS-shelfwork: 086 W
!!!SMS-variant:
!!!SMS-altvar:
!!!NIFC-rismid: 1001064620
!!!URL-scan: http://repozytorium.nifc.pl/skany/pl-sa-nut--l1643
!!!ONB-nifc: UWAGA: 8 ksiąg. Primi chori: 1mus Cantus (x), C 2dus (142-145), C 3tius (x), Bassus (x); Secondi chori: Primus Cantus (x), C 2dus (x), Altus (x), Bassus (x). UWAGA: Nie dodawać pustych linii, chyba że w rękopisie pojawiają się dodatkowe oznaczenia dotyczące pełnej obsady (a 4, a 8 itp.)
**kern	**kern	**kern	**text	**kern
*part4	*part3	*part2	*part2	*part1
*staff4	*staff3	*staff2	*staff2	*staff1
*Iempty	*Iempty	*Iempty	*	*Iempty
*I"Primi Chori: Bassus.	*I"Primi Chori: Cantus 3tius	*I"Primi Chori: Cantus 2dus	*	*I"Primi Chori: Im(us) Cantus
*I'Coro 1: B	*I'Coro 1: S 3	*I'Coro 1: S 2	*	*I'Coro 1: S 1
*	*	*clefG2	*	*
*	*	*k[b-]	*	*
*	*	*g:	*	*
*	*	*M2/2	*	*
*	*	*met(c|)	*	*
=1-	=1-	=1-	=1-	=1-
!LO:TX:t=P:problem:zgodnie z RISM "three parts missing"	!LO:TX:t=P:problem:zgodnie z RISM "three parts missing"	!	!	!LO:TX:t=P:problem:zgodnie z RISM "three parts missing"
!	!	!LO:TX:a:t=Magnificat wielkanocne\nna 4 głosy	!	!
1ryy	1ryy	0r	.	1ryy
=2-	=2-	=2-	=2-	=2-
1ryy	1ryy	.	.	1ryy
=3-	=3-	=3-	=3-	=3-
1ryy	1ryy	1r	.	1ryy
=4-	=4-	=4-	=4-	=4-
1ryy	1ryy	2b-/	Et	1ryy
.	.	4a/	ex-	.
.	.	4a/	-ul-	.
=5-	=5-	=5-	=5-	=5-
1ryy	1ryy	2cc\	-ta-	1ryy
.	.	2cc\	-vit	.
=6-	=6-	=6-	=6-	=6-
1ryy	1ryy	4dd\	spi-	1ryy
.	.	8cc\	-ri-	.
.	.	8b-\	-tus	.
.	.	2a/	me-	.
=7-	=7-	=7-	=7-	=7-
!	!	!LO:N:acc=#	!	!
1ryy	1ryy	1bn	-us	1ryy
=8-	=8-	=8-	=8-	=8-
1ryy	1ryy	2r	.	1ryy
.	.	4r	.	.
.	.	4dd\	in	.
=9-	=9-	=9-	=9-	=9-
1ryy	1ryy	2ee\	de-	1ryy
.	.	4ff\	-o	.
*	*	*	*ij	*
.	.	4ff\	in	.
=10-	=10-	=10-	=10-	=10-
1ryy	1ryy	2ee\	de-	1ryy
.	.	4dd\	-o	.
*	*	*	*Xij	*
.	.	4dd\	in	.
=11-	=11-	=11-	=11-	=11-
1ryy	1ryy	4cc#X\	de-	1ryy
.	.	2dd\	.	.
.	.	4cc#\	.	.
=12-	=12-	=12-	=12-	=12-
1ryy	1ryy	1dd	-o	1ryy
=13-	=13-	=13-	=13-	=13-
1ryy	1ryy	4r	.	1ryy
.	.	2g/	sa-	.
!	!	!LO:SIC:v:t=custos a	!	!
.	.	4g/	.	.
=14-	=14-	=14-	=14-	=14-
!	!	!LO:LB:g=original	!	!
1ryy	1ryy	2a/	-lu-	1ryy
.	.	2b-y/	-ta-	.
=15-	=15-	=15-	=15-	=15-
1ryy	1ryy	8a/L	-ri	1ryy
.	.	8g/	.	.
.	.	8a/	.	.
.	.	8b-/J	.	.
.	.	4a/	me-	.
.	.	4g/	.	.
=16-	=16-	=16-	=16-	=16-
1ryy	1ryy	1f#X	-o	1ryy
=17-	=17-	=17-	=17-	=17-
1ryy	1ryy	1r	.	1ryy
=18-	=18-	=18-	=18-	=18-
1ryy	1ryy	4r	.	1ryy
.	.	2a/	sa-	.
.	.	4g/	-lu-	.
=19-	=19-	=19-	=19-	=19-
1ryy	1ryy	4g/	-ta-	1ryy
.	.	2g/	-ri	.
.	.	4f#X/	me-	.
=20-	=20-	=20-	=20-	=20-
1ryy	1ryy	1g	-o	1ryy
=21-	=21-	=21-	=21-	=21-
1ryy	1ryy	1r	.	1ryy
=22-	=22-	=22-	=22-	=22-
1ryy	1ryy	2fny/	sa-	1ryy
.	.	2g/	-lu-	.
=23-	=23-	=23-	=23-	=23-
1ryy	1ryy	2a/	-ta	1ryy
.	.	2g/	ri	.
=24-	=24-	=24-	=24-	=24-
1ryy	1ryy	2f/	sa-	1ryy
.	.	2g/	-lu-	.
=25-	=25-	=25-	=25-	=25-
1ryy	1ryy	2a/	-ta-	1ryy
!	!	!LO:SIC:v:t=custos d	!	!
.	.	2g/	-ri	.
=26-	=26-	=26-	=26-	=26-
!	!	!LO:LB:g=original	!	!
1ryy	1ryy	1r	.	1ryy
=27-	=27-	=27-	=27-	=27-
1ryy	1ryy	2r	.	1ryy
.	.	4d/	sa-	.
.	.	4d/	-lu-	.
=28-	=28-	=28-	=28-	=28-
1ryy	1ryy	4e/	-ta-	1ryy
.	.	2g/	-ri	.
.	.	4f#X/	.	.
=29-	=29-	=29-	=29-	=29-
1ryy	1ryy	4g/	.	1ryy
.	.	2dd\	sa-	.
.	.	4dd\	-lu-	.
=30-	=30-	=30-	=30-	=30-
1ryy	1ryy	2ee-X\	-ta-	1ryy
.	.	4dd\	-ri	.
.	.	2dd\	me-	.
=31-	=31-	=31-	=31-	=31-
1ryy	1ryy	.	.	1ryy
.	.	8ccny\L	.	.
.	.	8b-\J	.	.
.	.	2a/	.	.
=32-	=32-	=32-	=32-	=32-
!	!	!LO:N:acc=#	!	!
1ryy	1ryy	0.bn	-o,	1ryy
=33-	=33-	=33-	=33-	=33-
1ryy	1ryy	.	.	1ryy
=34-	=34-	=34-	=34-	=34-
1ryy	1ryy	.	.	1ryy
=35||-	=35||-	=35||-	=35||-	=35||-
1ryy	1ryy	4b-y/	Qui-	1ryy
.	.	4a/	-a	.
.	.	4b-/	fe-	.
.	.	4a/	-cit	.
=36-	=36-	=36-	=36-	=36-
1ryy	1ryy	4g/	qu-	1ryy
!	!	!LO:SIC:v:t=custos b	!	!
!	!	!LO:SIC:v:l:t=custos fe	!	!
.	.	4a/	-ia	.
!	!	!LO:PB:g=original	!	!
.	.	4b-/	fe-	.
.	.	4a/	-cit	.
=37-	=37-	=37-	=37-	=37-
1ryy	1ryy	4b-\	mi-	1ryy
.	.	4cc\	.	.
.	.	4dd\	.	.
.	.	2dd\	-hi	.
=38-	=38-	=38-	=38-	=38-
1ryy	1ryy	.	.	1ryy
.	.	8cc#X\L	.	.
.	.	8b-\J	.	.
.	.	2cc#X\	ma-	.
=39-	=39-	=39-	=39-	=39-
1ryy	1ryy	1dd	-gna	1ryy
=40-	=40-	=40-	=40-	=40-
1ryy	1ryy	0r	.	1ryy
=41-	=41-	=41-	=41-	=41-
1ryy	1ryy	.	.	1ryy
=42-	=42-	=42-	=42-	=42-
1ryy	1ryy	2r	.	1ryy
.	.	2ccny\	et	.
=43-	=43-	=43-	=43-	=43-
1ryy	1ryy	4cc\	sa-	1ryy
.	.	4cc\	-nctum	.
.	.	2.g/	no-	.
=44-	=44-	=44-	=44-	=44-
1ryy	1ryy	.	.	1ryy
.	.	4fny,/	-mem	.
*	*	*	*ij	*
.	.	2cc\	et	.
=45-	=45-	=45-	=45-	=45-
1ryy	1ryy	4cc\	san-	1ryy
.	.	4cc\	-ctum	.
.	.	2.g/	no-	.
=46-	=46-	=46-	=46-	=46-
1ryy	1ryy	.	.	1ryy
.	.	4f/	-mem	.
*	*	*	*Xij	*
.	.	2r	.	.
=47-	=47-	=47-	=47-	=47-
1ryy	1ryy	2r	.	1ryy
.	.	4b-/	no-	.
.	.	4b-/	-men,	.
=48-	=48-	=48-	=48-	=48-
1ryy	1ryy	2cc\	e-	1ryy
!	!	!LO:SIC:v:t=custos b	!	!
.	.	2dd\	-ius	.
=49-	=49-	=49-	=49-	=49-
!	!	!LO:LB:g=original	!	!
1ryy	1ryy	2r	.	1ryy
.	.	4b-\	no-	.
.	.	4b-\	-men	.
=50-	=50-	=50-	=50-	=50-
1ryy	1ryy	2cc\	e-	1ryy
.	.	2dd\	-ius	.
=51-	=51-	=51-	=51-	=51-
1ryy	1ryy	4r	.	1ryy
.	.	4b-/	et	.
.	.	4b-/	san-	.
.	.	4b-/	-ctum	.
=52-	=52-	=52-	=52-	=52-
1ryy	1ryy	2f/	no-	1ryy
.	.	2e#X/	-men	.
=53-	=53-	=53-	=53-	=53-
1ryy	1ryy	2d/	e-	1ryy
.	.	2eny,/	-ius	.
=54-	=54-	=54-	=54-	=54-
1ryy	1ryy	4gg\	no-	1ryy
.	.	4ff\	.	.
.	.	1ee-X\	.	.
=55-	=55-	=55-	=55-	=55-
1ryy	1ryy	.	.	1ryy
.	.	2dd\	-men	.
=56-	=56-	=56-	=56-	=56-
!	!	!LO:TX:b:t=P:problem:# below	!	!
1ryy	1ryy	1cc#X	e-	1ryy
=57-	=57-	=57-	=57-	=57-
1ryy	1ryy	0g;	-ius	1ryy
=58-	=58-	=58-	=58-	=58-
1ryy	1ryy	.	.	1ryy
=59-	=59-	=59-	=59-	=59-
*M3/1	*M3/1	*M3/1	*	*M3/1
0.ryy	0.ryy	1b-	Fe-	0.ryy
.	.	1b-	-cit	.
.	.	1b-	po-	.
=60-	=60-	=60-	=60-	=60-
0.ryy	0.ryy	1.dd	-ten-	0.ryy
!	!	!LO:SIC:v:t=custos cc	!	!
.	.	2dd\	-ti-	.
!	!	!LO:LB:g=original	!	!
!	!	!LO:TX:b:t=P:problem:# below	!	!
.	.	1cc#X	-am	.
=61-	=61-	=61-	=61-	=61-
0.ryy	0.ryy	1r	.	0.ryy
.	.	1r	.	.
.	.	1g	in	.
=62-	=62-	=62-	=62-	=62-
0.ryy	0.ryy	1.f	bra-	0.ryy
.	.	2f/	.	.
.	.	1f	-hio	.
=63-	=63-	=63-	=63-	=63-
0.ryy	0.ryy	0.a	su-	0.ryy
=64-	=64-	=64-	=64-	=64-
0.ryy	0.ryy	0.a,	-o	0.ryy
=65-	=65-	=65-	=65-	=65-
0.ryy	0.ryy	1dd	dis-	0.ryy
.	.	1ccny	-per-	.
.	.	1b-	-sit	.
=66-	=66-	=66-	=66-	=66-
0.ryy	0.ryy	1a	su-	0.ryy
.	.	1a	-per-	.
.	.	1a,	-bos	.
=67-	=67-	=67-	=67-	=67-
0.ryy	0.ryy	1cc	su-	0.ryy
!	!	!LO:TX:b:t=cicho	!	!
.	.	1cc	-per-	.
.	.	1cc,	-bos	.
=68-	=68-	=68-	=68-	=68-
0.ryy	0.ryy	1b-	dis-	0.ryy
!	!	!LO:TX:a:t=mocno	!	!
.	.	1a	-per-	.
.	.	1g	-sit	.
=69-	=69-	=69-	=69-	=69-
0.ryy	0.ryy	1f#X	u-	0.ryy
.	.	1f#	-per-	.
.	.	1f#,	-bos	.
=70-	=70-	=70-	=70-	=70-
0.ryy	0.ryy	1a	su-	0.ryy
!	!	!LO:TX:a:t=cicho	!	!
.	.	1a	-per-	.
!	!	!LO:SIC:v:t=custos g	!	!
.	.	1a	-bos	.
=71-	=71-	=71-	=71-	=71-
!	!	!LO:LB:g=original	!	!
0.ryy	0.ryy	00.r	.	0.ryy
=72-	=72-	=72-	=72-	=72-
0.ryy	0.ryy	.	.	0.ryy
=73-	=73-	=73-	=73-	=73-
0.ryy	0.ryy	1.g	men-	0.ryy
.	.	2a/	.	.
.	.	1b-	-te	.
=74-	=74-	=74-	=74-	=74-
0.ryy	0.ryy	1cc	cor-	0.ryy
.	.	1b-	-dis	.
.	.	1a	u-	.
=75-	=75-	=75-	=75-	=75-
0.ryy	0.ryy	0.g	-i	0.ryy
=76-	=76-	=76-	=76-	=76-
0.ryy	0.ryy	1dd	dis-	0.ryy
.	.	1cc	-per-	.
!	!	!LO:TX:a:t=mocno	!	!
.	.	1b-	-sit	.
=77-	=77-	=77-	=77-	=77-
0.ryy	0.ryy	1a	su-	0.ryy
.	.	1a	-per-	.
.	.	1a	-bos	.
=78-	=78-	=78-	=78-	=78-
0.ryy	0.ryy	1cc	su-	0.ryy
!	!	!LO:TX:a:t=cicho	!	!
.	.	1cc	-per-	.
.	.	1cc,	-bos	.
=79-	=79-	=79-	=79-	=79-
0.ryy	0.ryy	1b-	dis-	0.ryy
!	!	!LO:TX:a:t=mocno	!	!
.	.	1a	-per-	.
.	.	1g	-sit	.
=80-	=80-	=80-	=80-	=80-
0.ryy	0.ryy	1f#X	su-	0.ryy
.	.	1f#	-per-	.
.	.	1f#X,	-bos	.
=81-	=81-	=81-	=81-	=81-
0.ryy	0.ryy	1a	su-	0.ryy
!	!	!LO:TX:a:t=cicho	!	!
.	.	1a	-per-	.
.	.	1a	-bos	.
=82-	=82-	=82-	=82-	=82-
!	!	!LO:LB:g=original	!	!
0.ryy	0.ryy	00.r	.	0.ryy
=83-	=83-	=83-	=83-	=83-
0.ryy	0.ryy	.	.	0.ryy
=84-	=84-	=84-	=84-	=84-
0.ryy	0.ryy	1.g	men-	0.ryy
.	.	2a/	-te	.
.	.	1b-	cor-	.
=85-	=85-	=85-	=85-	=85-
0.ryy	0.ryy	1cc	.	0.ryy
.	.	1b-	-dis	.
.	.	1a	su-	.
=86-	=86-	=86-	=86-	=86-
0.ryy	0.ryy	0g	-i	0.ryy
.	.	1g	cor-	.
=87-	=87-	=87-	=87-	=87-
0.ryy	0.ryy	0a	-dis	0.ryy
.	.	1a	u-	.
=88-	=88-	=88-	=88-	=88-
0.ryy	0.ryy	0g	-i	0.ryy
.	.	2dd\	cor-	.
.	.	2cc\	.	.
=89-	=89-	=89-	=89-	=89-
0.ryy	0.ryy	0b-	-dis	0.ryy
.	.	1a	su-	.
=90-	=90-	=90-	=90-	=90-
!	!	!LO:N:acc=#	!	!
0.ryy	0.ryy	0.bn;	-i,	0.ryy
=91-	=91-	=91-	=91-	=91-
*M2/2	*M2/2	*M2/2	*	*M2/2
*met(c|)	*met(c|)	*met(c|)	*	*met(c|)
1ryy	1ryy	0r	.	1ryy
=92-	=92-	=92-	=92-	=92-
1ryy	1ryy	.	.	1ryy
=93-	=93-	=93-	=93-	=93-
1ryy	1ryy	2b-y/	E-	1ryy
.	.	4a/	-su-	.
.	.	4a/	-ri-	.
=94-	=94-	=94-	=94-	=94-
1ryy	1ryy	2b-/	-en-	1ryy
.	.	2a/	-tes	.
=95-	=95-	=95-	=95-	=95-
!	!	!LO:SIC:v:t=custos a	!	!
1ryy	1ryy	2g/	e-	1ryy
!	!	!LO:LB:g=original	!	!
.	.	4a/	-su-	.
.	.	4a/	-ri-	.
=96-	=96-	=96-	=96-	=96-
1ryy	1ryy	2b-/	-en-	1ryy
.	.	2a/	-tes	.
=97-	=97-	=97-	=97-	=97-
1ryy	1ryy	8a/L	im-	1ryy
.	.	8g/	.	.
.	.	8a/	.	.
.	.	8b-/J	.	.
.	.	4a/	-ple-	.
.	.	4g/	-vit	.
=98-	=98-	=98-	=98-	=98-
1ryy	1ryy	4g/	.	1ryy
.	.	4f#X/	bo-	.
.	.	2g,/	-nis	.
=99-	=99-	=99-	=99-	=99-
1ryy	1ryy	8a/L	im-	1ryy
.	.	8g/	.	.
.	.	8a/	.	.
.	.	8b-/J	.	.
.	.	4a/	-ple-	.
.	.	4g/	-vit	.
=100-	=100-	=100-	=100-	=100-
1ryy	1ryy	4g/	.	1ryy
.	.	4f#X/	-bo-	.
.	.	2g/	-nis	.
=101-	=101-	=101-	=101-	=101-
1ryy	1ryy	2r	.	1ryy
.	.	8g/	et	.
.	.	8a/	.	.
.	.	4b-/	.	.
=102-	=102-	=102-	=102-	=102-
1ryy	1ryy	4.a/	di-	1ryy
!	!	!LO:SIC:v:t=custos b	!	!
!	!	!LO:SIC:v:l:t=custos tes	!	!
.	.	8a/	-vi-	.
!	!	!LO:PB:g=original	!	!
.	.	2b-/	-tes	.
=103-	=103-	=103-	=103-	=103-
1ryy	1ryy	2r	.	1ryy
.	.	8g/	et	.
.	.	8a/	.	.
.	.	4b-/	.	.
=104-	=104-	=104-	=104-	=104-
1ryy	1ryy	4.a/	di-	1ryy
.	.	8a/	-vi-	.
.	.	2b-,/	-tes	.
=105-	=105-	=105-	=105-	=105-
1ryy	1ryy	4.a/	di-	1ryy
.	.	8b-/	.	.
.	.	4g/	-mi-	.
.	.	4g,/	-sit	.
=106-	=106-	=106-	=106-	=106-
1ryy	1ryy	4.a/	di-	1ryy
.	.	8b-/	-mi-	.
.	.	4g/	-sit	.
.	.	4g/	i-	.
=107-	=107-	=107-	=107-	=107-
1ryy	1ryy	2f#X/	-na-	1ryy
.	.	2g/	-nes	.
=108-	=108-	=108-	=108-	=108-
1ryy	1ryy	1r;	.	1ryy
=109-	=109-	=109-	=109-	=109-
1ryy	1ryy	1dd	Si-	1ryy
=110-	=110-	=110-	=110-	=110-
1ryy	1ryy	2cc#X\	-cut	1ryy
!	!	!LO:SIC:v:t=custos dd	!	!
.	.	2cc#\	lo-	.
=111-	=111-	=111-	=111-	=111-
!	!	!LO:LB:g=original	!	!
1ryy	1ryy	2dd\	cu-	1ryy
.	.	2dd\	-tus	.
=112-	=112-	=112-	=112-	=112-
!	!	!LO:N:acc=#	!	!
1ryy	1ryy	1bn	et	1ryy
=113-	=113-	=113-	=113-	=113-
1ryy	1ryy	2r	.	1ryy
.	.	2ccny\	ad	.
=114-	=114-	=114-	=114-	=114-
1ryy	1ryy	2.cc\	pa-	1ryy
.	.	4b-y/	.	.
=115-	=115-	=115-	=115-	=115-
1ryy	1ryy	1a	-tres	1ryy
=116-	=116-	=116-	=116-	=116-
1ryy	1ryy	2r	.	1ryy
.	.	2b-/	ad	.
=117-	=117-	=117-	=117-	=117-
1ryy	1ryy	2a/	pa-	1ryy
.	.	2g/	-tres	.
=118-	=118-	=118-	=118-	=118-
1ryy	1ryy	(2g/	no-	1ryy
.	.	2fny/)	.	.
=119-	=119-	=119-	=119-	=119-
1ryy	1ryy	1g	-tros	1ryy
=120-	=120-	=120-	=120-	=120-
*M3/1	*M3/1	*M3/1	*	*M3/1
0.ryy	0.ryy	1f	Ab-	0.ryy
.	.	1f	-ra-	.
.	.	1f,	-ham	.
=121-	=121-	=121-	=121-	=121-
*	*	*	*ij	*
0.ryy	0.ryy	1.g	Ab-	0.ryy
.	.	2g/	-ra-	.
.	.	1g,	-ham	.
*	*	*	*Xij	*
=122-	=122-	=122-	=122-	=122-
0.ryy	0.ryy	1.a	ab-	0.ryy
!	!	!LO:SIC:v:t=custos a	!	!
.	.	2a/	-ra-	.
!	!	!LO:LB:g=original	!	!
.	.	1a,	-ham	.
=123-	=123-	=123-	=123-	=123-
*	*	*	*ij	*
0.ryy	0.ryy	1.b-	ab-	0.ryy
.	.	2b-\	-ra-	.
.	.	1b-,	-ham	.
*	*	*	*Xij	*
=124-	=124-	=124-	=124-	=124-
0.ryy	0.ryy	1.cc	ab-	0.ryy
.	.	2cc\	-ra-	.
.	.	1cc,	-ham	.
=125-	=125-	=125-	=125-	=125-
*	*	*	*ij	*
0.ryy	0.ryy	1.dd	ab-	0.ryy
.	.	2dd\	-ra-	.
.	.	1dd,	-ham	.
*	*	*	*Xij	*
=126-	=126-	=126-	=126-	=126-
0.ryy	0.ryy	1ff	et	0.ryy
.	.	1ff	se-	.
.	.	1ff	-mi-	.
=127-	=127-	=127-	=127-	=127-
0.ryy	0.ryy	0dd	-ni	0.ryy
.	.	1dd	et	.
=128-	=128-	=128-	=128-	=128-
0.ryy	0.ryy	1b-	se-	0.ryy
.	.	1b-	-mi-	.
.	.	1b-	-ni	.
=129-	=129-	=129-	=129-	=129-
0.ryy	0.ryy	1a	e-	0.ryy
.	.	1a	-ius	.
.	.	1g	in	.
=130-	=130-	=130-	=130-	=130-
!	!	!LO:TX:a:t=P:problem:# above	!	!
0.ryy	0.ryy	1.f#X	e-	0.ryy
!	!	!LO:SIC:v:t=custos g	!	!
.	.	2f#/	-cu-	.
!	!	!LO:LB:g=original	!	!
.	.	1g	-la	.
=131-	=131-	=131-	=131-	=131-
0.ryy	0.ryy	1.f#X	ab-	0.ryy
.	.	2f#/	-ra-	.
.	.	1f#,	-ham	.
=132-	=132-	=132-	=132-	=132-
*	*	*	*ij	*
0.ryy	0.ryy	1.g	ab-	0.ryy
.	.	2g/	-ra-	.
.	.	1g,	-ham	.
*	*	*	*Xij	*
=133-	=133-	=133-	=133-	=133-
0.ryy	0.ryy	1.a	ab-	0.ryy
.	.	2a/	-ra-	.
.	.	1a,	-ham	.
=134-	=134-	=134-	=134-	=134-
*	*	*	*ij	*
0.ryy	0.ryy	1.b-	ab-	0.ryy
.	.	2b-/	-ra-	.
.	.	1b-,	-ham	.
*	*	*	*Xij	*
=135-	=135-	=135-	=135-	=135-
0.ryy	0.ryy	1.cc	ab-	0.ryy
.	.	2cc\	-ra-	.
.	.	1cc,	-ham	.
=136-	=136-	=136-	=136-	=136-
*	*	*	*ij	*
0.ryy	0.ryy	1.dd	ab-	0.ryy
.	.	2dd\	-ra-	.
.	.	1dd,	-ham	.
*	*	*	*Xij	*
=137-	=137-	=137-	=137-	=137-
0.ryy	0.ryy	1ff	et	0.ryy
.	.	1ff	se-	.
!	!	!LO:SIC:v:t=custos dd	!	!
.	.	1ff	-mi-	.
=138-	=138-	=138-	=138-	=138-
!	!	!LO:LB:g=original	!	!
0.ryy	0.ryy	0dd	-ni	0.ryy
.	.	1dd	et	.
=139-	=139-	=139-	=139-	=139-
0.ryy	0.ryy	1b-	se-	0.ryy
.	.	1b-	-mi-	.
.	.	1b-	-ni	.
=140-	=140-	=140-	=140-	=140-
0.ryy	0.ryy	1a	e-	0.ryy
.	.	1a	-ius	.
.	.	1g	in	.
=141-	=141-	=141-	=141-	=141-
!	!	!LO:TX:a:t=P:problem:# above	!	!
0.ryy	0.ryy	1.f#X	se-	0.ryy
.	.	2f#/	-cu-	.
.	.	1g	-la	.
=142-	=142-	=142-	=142-	=142-
0.ryy	0.ryy	1r	.	0.ryy
.	.	1r	.	.
.	.	1g	in-	.
=143-	=143-	=143-	=143-	=143-
0.ryy	0.ryy	0f#X	-se-	0.ryy
.	.	1f#X	-cu-	.
=144-	=144-	=144-	=144-	=144-
0.ryy	0.ryy	0.g;	-la,	0.ryy
=145-	=145-	=145-	=145-	=145-
0.ryy	0.ryy	00.r	.	0.ryy
=146-	=146-	=146-	=146-	=146-
0.ryy	0.ryy	.	.	0.ryy
=147-	=147-	=147-	=147-	=147-
0.ryy	0.ryy	0dd	Si-	0.ryy
.	.	1dd	-cut	.
=148-	=148-	=148-	=148-	=148-
0.ryy	0.ryy	0cc	e-	0.ryy
!	!	!LO:SIC:v:t=custos dd	!	!
.	.	1cc	-rat	.
=149-	=149-	=149-	=149-	=149-
!	!	!LO:LB:g=original	!	!
0.ryy	0.ryy	0dd	in	0.ryy
.	.	1cc	prin-	.
=150-	=150-	=150-	=150-	=150-
0.ryy	0.ryy	1.b-	.	0.ryy
.	.	2b-/	-pi-	.
!	!	!LO:TX:t=P:problem:nieczytelne źródło	!	!
.	.	1ayy	-o	.
=151-	=151-	=151-	=151-	=151-
0.ryy	0.ryy	1dd	et	0.ryy
.	.	1dd	nunc	.
.	.	1eeny	et	.
=152-	=152-	=152-	=152-	=152-
0.ryy	0.ryy	0ff	sem-	0.ryy
.	.	1ee,	-per	.
=153-	=153-	=153-	=153-	=153-
*	*	*	*ij	*
0.ryy	0.ryy	1dd	et	0.ryy
.	.	1dd	nunc	.
.	.	1ee	et	.
=154-	=154-	=154-	=154-	=154-
0.ryy	0.ryy	0ff	sem-	0.ryy
.	.	1ee,	-per	.
*	*	*	*Xij	*
=155-	=155-	=155-	=155-	=155-
!	!	!LO:TX:b:t=P:problem:# below	!	!
0.ryy	0.ryy	1dd#X	et	0.ryy
*	*	*lig	*	*
.	.	1b-	sem-	.
!	!	!LO:TX:b:t=P:problem:# below	!	!
.	.	1cc#X	.	.
*	*	*Xlig	*	*
=156-	=156-	=156-	=156-	=156-
0.ryy	0.ryy	0.ddny	-per	0.ryy
.	.	.	.	.
=157-	=157-	=157-	=157-	=157-
0.ryy	0.ryy	1.b-	et	0.ryy
.	.	.	.	.
!	!	!LO:SIC:v:t=custos g	!	!
!	!	!LO:SIC:v:l:t=custos in	!	!
.	.	2a/	.	.
!	!	!LO:PB:g=original	!	!
.	.	1g	in	.
=158-	=158-	=158-	=158-	=158-
0.ryy	0.ryy	1.a	se-	0.ryy
.	.	.	.	.
.	.	2a/	-cu-	.
.	.	1b-	-la	.
=159-	=159-	=159-	=159-	=159-
0.ryy	0.ryy	1.a	se-	0.ryy
.	.	.	.	.
.	.	2a/	-cu-	.
.	.	1g	-lo-	.
=160-	=160-	=160-	=160-	=160-
0.ryy	0.ryy	0.fny	-rum	0.ryy
.	.	.	.	.
=161-	=161-	=161-	=161-	=161-
0.ryy	0.ryy	00.r	.	0.ryy
=162-	=162-	=162-	=162-	=162-
0.ryy	0.ryy	.	.	0.ryy
=163-	=163-	=163-	=163-	=163-
0.ryy	0.ryy	1.g	A-	0.ryy
.	.	2e/	.	.
!	!	!LO:TX:a:t=P:problem:# above	!	!
.	.	1f#X	.	.
=164-	=164-	=164-	=164-	=164-
0.ryy	0.ryy	1g	.	0.ryy
*	*	*lig	*	*
.	.	1b-	men	.
.	.	1a	.	.
*	*	*Xlig	*	*
=165-	=165-	=165-	=165-	=165-
0.ryy	0.ryy	1g	a-	0.ryy
.	.	2d/	men	.
.	.	2e/	.	.
.	.	1f#X	a-	.
=166-	=166-	=166-	=166-	=166-
0.ryy	0.ryy	0.g	-men	0.ryy
.	.	.	.	.
=167-	=167-	=167-	=167-	=167-
0.ryy	0.ryy	0.r	.	0.ryy
=168-	=168-	=168-	=168-	=168-
0.ryy	0.ryy	0ccny	se-	0.ryy
.	.	1dd	-cu-	.
=169-	=169-	=169-	=169-	=169-
0.ryy	0.ryy	0ee-X	-lo-	0.ryy
!	!	!LO:SIC:v:t=custos cc	!	!
.	.	1dd	-rum	.
=170-	=170-	=170-	=170-	=170-
!	!	!LO:LB:g=original	!	!
0.ryy	0.ryy	0cc	se-	0.ryy
.	.	1dd	-cu-	.
=171-	=171-	=171-	=171-	=171-
0.ryy	0.ryy	0ee-X	-lo-	0.ryy
.	.	1dd	-rum	.
=172-	=172-	=172-	=172-	=172-
0.ryy	0.ryy	00.r	.	0.ryy
=173-	=173-	=173-	=173-	=173-
0.ryy	0.ryy	.	.	0.ryy
=174-	=174-	=174-	=174-	=174-
0.ryy	0.ryy	1r	.	0.ryy
.	.	1r	.	.
.	.	2gg\	a-	.
.	.	2ff\	.	.
=175-	=175-	=175-	=175-	=175-
0.ryy	0.ryy	2ee-X\	.	0.ryy
.	.	2dd\	.	.
.	.	2cc\	.	.
.	.	2b-\	.	.
!	!	!LO:TX:b:t=P:problem:# below	!	!
.	.	1cc#X	.	.
=176-	=176-	=176-	=176-	=176-
0.ryy	0.ryy	0.b-	-men	0.ryy
=177-	=177-	=177-	=177-	=177-
*-	*-	*-	*-	*-
!!!system-decoration: [(s1,s2,s3,s4)]
!!!AIN: 4 empty
!!!ENC: Marta Opryszak
!!!END: 2021-10-29
!!!ENC: Marta Chmielewska
!!!END: 2021-11-05
